X: 422
T: Temperance Reel
S: Viola Ruth "Pioneer Western Folk Tunes" 1948 p.42 #2
R: reel
Z: 2019 John Chambers <jc:trillian.mit.edu>
M: 2/4
L: 1/16
K: G
V: 1 name="121"
|: (3(DEF) |\
G2(GF) GABc | dBge dcBA | BEED EFGA | BEED E2(3(DEF) | G2GF GABc |
dBge dBAc | BEED EFGA | BdAF G3 :: B | Beed e3f | geaf gfed |
Bdde d3e | geaf gfed | Beed e3f | geaf gfed | BEED EFGA | BdAF G3 :|
